public/icons/rust-lang-icon 1.svg

<svg width="60" height="60" viewBox="0 0 60 60" fill="none" xmlns="http://www.w3.org/2000/svg">
<g clip-path="url(#clip0_1375_2912)">
<path d="M28.1252 7.06834C28.1252 6.83418 28.1713 6.60231 28.2609 6.38597C28.3505 6.16963 28.4818 5.97306 28.6474 5.80748C28.813 5.6419 29.0096 5.51056 29.2259 5.42095C29.4422 5.33134 29.6741 5.28521 29.9083 5.28521C30.1424 5.28521 30.3743 5.33134 30.5907 5.42095C30.807 5.51056 31.0036 5.6419 31.1691 5.80748C31.3347 5.97306 31.4661 6.16963 31.5557 6.38597C31.6453 6.60231 31.6914 6.83418 31.6914 7.06834C31.6914 7.54125 31.5035 7.9948 31.1691 8.3292C30.8347 8.6636 30.3812 8.85147 29.9083 8.85147C29.4354 8.85147 28.9818 8.6636 28.6474 8.3292C28.313 7.9948 28.1252 7.54125 28.1252 7.06834ZM6.85141 23.2121C6.85141 22.9779 6.89753 22.7461 6.98714 22.5297C7.07675 22.3134 7.20809 22.1168 7.37367 21.9512C7.53925 21.7857 7.73582 21.6543 7.95216 21.5647C8.1685 21.4751 8.40037 21.429 8.63453 21.429C8.8687 21.429 9.10057 21.4751 9.3169 21.5647C9.53324 21.6543 9.72981 21.7857 9.89539 21.9512C10.061 22.1168 10.1923 22.3134 10.2819 22.5297C10.3715 22.7461 10.4177 22.9779 10.4177 23.2121C10.4177 23.685 10.2298 24.1385 9.89539 24.4729C9.56099 24.8074 9.10745 24.9952 8.63453 24.9952C8.16162 24.9952 7.70807 24.8074 7.37367 24.4729C7.03927 24.1385 6.85141 23.685 6.85141 23.2121ZM49.3989 23.2946C49.3989 22.8217 49.5868 22.3681 49.9212 22.0337C50.2556 21.6993 50.7091 21.5115 51.182 21.5115C51.6549 21.5115 52.1085 21.6993 52.4429 22.0337C52.7773 22.3681 52.9652 22.8217 52.9652 23.2946C52.9652 23.7675 52.7773 24.221 52.4429 24.5554C52.1085 24.8898 51.6549 25.0777 51.182 25.0777C50.7091 25.0777 50.2556 24.8898 49.9212 24.5554C49.5868 24.221 49.3989 23.7675 49.3989 23.2946ZM12.0114 25.7433C12.4054 25.5674 12.7136 25.2425 12.8686 24.8397C13.0236 24.437 13.0127 23.9893 12.8383 23.5946L12.047 21.8058H15.1595V35.8308H8.88016C8.10536 33.109 7.86406 30.263 8.16953 27.4496L12.0114 25.7433ZM25.0277 26.0883V21.954H32.4377C32.8202 21.954 35.1377 22.3965 35.1377 24.129C35.1377 25.569 33.3564 26.0865 31.8939 26.0865L25.0277 26.0883ZM14.9102 48.3465C14.9102 48.1123 14.9563 47.8804 15.0459 47.6641C15.1355 47.4478 15.2668 47.2512 15.4324 47.0856C15.598 46.92 15.7946 46.7887 16.0109 46.6991C16.2272 46.6095 16.4591 46.5633 16.6933 46.5633C16.9274 46.5633 17.1593 46.6095 17.3757 46.6991C17.592 46.7887 17.7886 46.92 17.9541 47.0856C18.1197 47.2512 18.2511 47.4478 18.3407 47.6641C18.4303 47.8804 18.4764 48.1123 18.4764 48.3465C18.4764 48.8194 18.2885 49.2729 17.9541 49.6073C17.6197 49.9417 17.1662 50.1296 16.6933 50.1296C16.2204 50.1296 15.7668 49.9417 15.4324 49.6073C15.098 49.2729 14.9102 48.8194 14.9102 48.3465ZM41.3345 48.429C41.3345 47.9561 41.5224 47.5025 41.8568 47.1681C42.1912 46.8337 42.6447 46.6458 43.1177 46.6458C43.5906 46.6458 44.0441 46.8337 44.3785 47.1681C44.7129 47.5025 44.9008 47.9561 44.9008 48.429C44.9008 48.9019 44.7129 49.3554 44.3785 49.6898C44.0441 50.0242 43.5906 50.2121 43.1177 50.2121C42.6447 50.2121 42.1912 50.0242 41.8568 49.6898C41.5224 49.3554 41.3345 48.9019 41.3345 48.429ZM41.8858 44.3846C41.0045 44.1971 40.142 44.7558 39.9545 45.6352L39.0602 49.8127C36.1817 51.1164 33.0557 51.7835 29.8958 51.7683C26.7359 51.7531 23.6166 51.056 20.7508 49.7246L19.8564 45.5471C19.6689 44.6658 18.8064 44.1071 17.9252 44.2965L14.237 45.0877C13.5518 44.3819 12.9147 43.6308 12.3302 42.8396H30.2739C30.4764 42.8396 30.6114 42.8021 30.6114 42.6183V36.2715C30.6114 36.084 30.4764 36.0502 30.2739 36.0502H25.0239V32.0265H30.6995C31.217 32.0265 33.4689 32.1765 34.1908 35.0527L35.2502 39.7402C35.5877 40.7715 36.962 42.8396 38.4245 42.8396H47.687C47.0654 43.6711 46.3856 44.4574 45.6527 45.1927L41.8858 44.3846ZM51.8495 27.6258C51.9756 28.8927 51.9913 30.1681 51.8964 31.4377H49.6464C49.4214 31.4377 49.3277 31.5877 49.3277 31.8071V32.8421C49.3277 35.2796 47.9552 35.8046 46.7514 35.9415C45.6077 36.0727 44.3327 35.4615 44.1789 34.7602C43.5039 30.9577 42.3789 30.1477 40.6164 28.7415C42.8233 27.339 45.1202 25.2727 45.1202 22.5033C45.1202 19.5146 43.0708 17.6321 41.6739 16.7096C39.7145 15.4158 37.5452 15.159 36.9602 15.159H13.6445C16.8651 11.5604 21.1824 9.12399 25.9277 8.22709L28.6745 11.109C29.2933 11.7596 30.3245 11.784 30.9733 11.1615L34.0483 8.22334C37.1805 8.80984 40.1476 10.0711 42.7434 11.9196C45.3392 13.7681 47.5015 16.1595 49.0802 18.9277L46.9764 23.679C46.802 24.0737 46.7911 24.5214 46.9461 24.9241C47.101 25.3268 47.4093 25.6517 47.8033 25.8277L51.8495 27.6258ZM57.0958 27.7008L57.0245 26.9658L59.192 24.9446C59.6327 24.5321 59.4677 23.7071 58.9052 23.4971L56.1358 22.4621L55.9183 21.7496L57.6433 19.3496C57.9958 18.8621 57.6714 18.084 57.0808 17.9865L54.1595 17.5121L53.8089 16.8558L55.037 14.1615C55.2883 13.6121 54.8214 12.9108 54.2177 12.9333L51.2552 13.0365L50.7864 12.4683L51.467 9.58084C51.6039 8.99397 51.0095 8.39959 50.4227 8.53646L47.5352 9.21709L46.9652 8.74834L47.0683 5.78584C47.0908 5.18584 46.3895 4.71709 45.842 4.96646L43.1495 6.19459L42.4933 5.84209L42.017 2.92084C41.9233 2.32834 41.1414 2.00584 40.6539 2.35834L38.2539 4.08334L37.5414 3.86771L36.5064 1.09834C36.2964 0.53584 35.4695 0.37084 35.0589 0.80959L33.0377 2.97709L32.3027 2.90584L30.7427 0.383965C30.4277 -0.126035 29.5802 -0.126035 29.267 0.383965L27.707 2.90584L26.972 2.97709L24.947 0.80584C24.5345 0.36709 23.7095 0.530215 23.4995 1.09459L22.4645 3.86397L21.752 4.07959L19.352 2.35459C18.8645 2.00209 18.0845 2.32646 17.9889 2.91709L17.5127 5.83834L16.8564 6.19084L14.1639 4.96272C13.6164 4.71334 12.9133 5.18209 12.9377 5.78209L13.0408 8.74459L12.4708 9.21334L9.58328 8.53271C8.99641 8.39584 8.40203 8.99021 8.53891 9.57709L9.21953 12.4646L8.75078 13.0327L5.78828 12.9296C5.18828 12.9108 4.71953 13.6083 4.96891 14.1577L6.19703 16.8521L5.84453 17.5083L2.92328 17.9827C2.33078 18.0765 2.00828 18.8583 2.36078 19.3458L4.08578 21.7458L3.86828 22.4583L1.09891 23.4933C0.536406 23.7033 0.371406 24.5302 0.812031 24.9408L2.97953 26.9621L2.90828 27.6971L0.386406 29.2571C-0.123594 29.5721 -0.123594 30.4196 0.386406 30.7327L2.90828 32.2927L2.97953 33.0277L0.806406 35.0565C0.367656 35.469 0.530781 36.294 1.09328 36.504L3.86266 37.539L4.08016 38.2515L2.35516 40.6515C2.00453 41.139 2.32703 41.919 2.91766 42.0146L5.83703 42.489L6.18953 43.1452L4.96141 45.8377C4.71203 46.3852 5.18266 47.0883 5.78078 47.0658L8.74328 46.9627L9.21203 47.5327L8.53141 50.4202C8.39453 51.0052 8.98891 51.6015 9.57578 51.4627L12.4633 50.7821L13.0333 51.2508L12.9302 54.2133C12.9077 54.8133 13.6089 55.2821 14.1564 55.0327L16.8489 53.8046L17.5052 54.1571L17.9814 57.0765C18.0752 57.6708 18.857 57.9915 19.3445 57.6427L21.7445 55.914L22.457 56.1315L23.492 58.9008C23.702 59.4633 24.5289 59.6283 24.9395 59.1877L26.9608 57.0202L27.6958 57.0952L29.2558 59.6171C29.5708 60.1233 30.4145 60.1271 30.7314 59.6171L32.2914 57.0952L33.0264 57.0202L35.0477 59.1877C35.4602 59.6283 36.2852 59.4633 36.4952 58.9008L37.5302 56.1315L38.2427 55.914L40.6427 57.6427C41.1302 57.9933 41.9102 57.6708 42.0058 57.0765L42.482 54.1571L43.1383 53.8046L45.8308 55.0327C46.3783 55.2821 47.0795 54.8152 47.057 54.2133L46.9539 51.2508L47.522 50.7821L50.4095 51.4627C50.9964 51.5996 51.5908 51.0052 51.4539 50.4202L50.7733 47.5327L51.242 46.9627L54.2045 47.0658C54.8045 47.0902 55.2733 46.3852 55.0239 45.8377L53.7958 43.1452L54.1464 42.489L57.0677 42.0146C57.662 41.9208 57.9864 41.1408 57.6302 40.6515L55.9052 38.2515L56.1227 37.539L58.892 36.504C59.4545 36.2921 59.6195 35.4671 59.1789 35.0565L57.0114 33.0352L57.0827 32.3002L59.6045 30.7402C60.1145 30.4252 60.1164 29.5815 59.6045 29.2646L57.0958 27.7008Z" fill="white"/>
</g>
<defs>
<clipPath id="clip0_1375_2912">
<rect width="60" height="60" fill="white"/>
</clipPath>
</defs>
</svg>

<svg xmlns="http://www.w3.org/2000/svg" width="60" height="60" fill="none"><g clip-path="url(#a)"><path fill="#fff" d="M28.125 7.068a1.783 1.783 0 1 1 3.567 0 1.783 1.783 0 0 1-3.567 0ZM6.851 23.212a1.783 1.783 0 1 1 3.567 0 1.783 1.783 0 0 1-3.567 0Zm42.548.083a1.783 1.783 0 1 1 3.566 0 1.783 1.783 0 0 1-3.566 0ZM12.01 25.743a1.63 1.63 0 0 0 .827-2.148l-.791-1.79h3.112v14.026H8.88a21.956 21.956 0 0 1-.71-8.381l3.841-1.707Zm13.017.345v-4.134h7.41c.382 0 2.7.442 2.7 2.175 0 1.44-1.782 1.957-3.244 1.957l-6.866.002ZM14.91 48.346a1.783 1.783 0 1 1 3.566 0 1.783 1.783 0 0 1-3.566 0Zm26.424.083a1.783 1.783 0 1 1 3.567 0 1.783 1.783 0 0 1-3.567 0Zm.552-4.044a1.625 1.625 0 0 0-1.931 1.25l-.895 4.178a21.957 21.957 0 0 1-18.31-.088l-.894-4.178a1.622 1.622 0 0 0-1.93-1.25l-3.689.79a21.963 21.963 0 0 1-1.907-2.247h17.944c.202 0 .337-.038.337-.222v-6.346c0-.188-.135-.222-.337-.222h-5.25v-4.023h5.675c.518 0 2.77.15 3.492 3.026l1.06 4.687c.337 1.032 1.711 3.1 3.174 3.1h9.262a21.95 21.95 0 0 1-2.034 2.353l-3.767-.808Zm9.963-16.76a21.96 21.96 0 0 1 .047 3.813h-2.25c-.225 0-.318.15-.318.37v1.034c0 2.438-1.373 2.963-2.577 3.1-1.143.13-2.418-.48-2.572-1.182-.675-3.802-1.8-4.612-3.563-6.018 2.207-1.403 4.504-3.47 4.504-6.239 0-2.988-2.05-4.87-3.446-5.793-1.96-1.294-4.129-1.551-4.714-1.551H13.644a21.956 21.956 0 0 1 12.284-6.932l2.746 2.882c.62.65 1.65.675 2.3.053l3.074-2.939A21.957 21.957 0 0 1 49.08 18.928l-2.104 4.751a1.631 1.631 0 0 0 .827 2.149l4.047 1.798Zm5.247.076-.071-.735 2.167-2.021c.44-.413.276-1.238-.287-1.448l-2.77-1.035-.217-.712 1.725-2.4c.353-.488.028-1.266-.562-1.364l-2.922-.474-.35-.656 1.228-2.695c.251-.549-.216-1.25-.82-1.228l-2.962.104-.469-.569.681-2.887c.137-.587-.457-1.181-1.044-1.045l-2.888.681-.57-.469.103-2.962c.023-.6-.678-1.069-1.226-.82L43.15 6.195l-.657-.353-.476-2.921c-.094-.593-.876-.915-1.363-.563l-2.4 1.725-.713-.215-1.035-2.77C36.296.536 35.47.371 35.06.81l-2.021 2.167-.735-.071-1.56-2.522c-.315-.51-1.163-.51-1.476 0l-1.56 2.522-.735.071L24.947.806c-.412-.439-1.238-.276-1.447.289l-1.035 2.769-.713.216-2.4-1.725c-.488-.353-1.268-.029-1.363.562l-.476 2.921-.657.353-2.692-1.228c-.548-.25-1.25.22-1.226.82l.103 2.962-.57.468-2.888-.68c-.587-.137-1.181.457-1.044 1.044l.68 2.888-.468.568-2.963-.103c-.6-.02-1.068.678-.82 1.228l1.229 2.694-.352.656-2.922.475c-.592.093-.915.875-.562 1.363l1.725 2.4-.218.712-2.77 1.035c-.562.21-.727 1.037-.286 1.448l2.168 2.021-.072.735-2.522 1.56c-.51.315-.51 1.163 0 1.476l2.522 1.56.072.735-2.174 2.029c-.438.412-.275 1.237.287 1.447l2.77 1.035.217.712-1.725 2.4c-.35.488-.028 1.268.563 1.364l2.919.474.353.656-1.229 2.693c-.249.547.222 1.25.82 1.228l2.962-.103.469.57-.68 2.887c-.137.585.457 1.181 1.044 1.043l2.887-.68.57.468-.103 2.962c-.022.6.679 1.07 1.226.82l2.693-1.228.656.352.476 2.92c.094.594.876.915 1.363.566l2.4-1.729.713.218 1.035 2.769c.21.562 1.037.727 1.447.287l2.022-2.168.735.075 1.56 2.522c.315.506 1.159.51 1.475 0l1.56-2.522.735-.075 2.022 2.168c.412.44 1.237.275 1.447-.287l1.035-2.77.713-.217 2.4 1.729c.487.35 1.267.028 1.363-.566l.476-2.92.656-.352 2.693 1.228c.547.25 1.248-.218 1.226-.82l-.103-2.962.568-.469 2.888.68c.586.138 1.18-.457 1.044-1.042l-.68-2.887.468-.57 2.963.103c.6.024 1.068-.68.819-1.228l-1.228-2.693.35-.656 2.922-.474c.594-.094.918-.874.562-1.364l-1.725-2.4.218-.712 2.769-1.035c.563-.212.727-1.037.287-1.447l-2.168-2.022.072-.735 2.522-1.56c.51-.315.511-1.159 0-1.475l-2.51-1.564Z"/></g><defs><clipPath id="a"><path fill="#fff" d="M0 0h60v60H0z"/></clipPath></defs></svg>
